svg/box_shadow.svg

<svg xmlns="http://www.w3.org/2000/svg" viewBox="0 0 24 24"><path d="M3 3h15v15H3zm16 16h2v2h-2zm0-3h2v2h-2zm0-3h2v2h-2zm0-3h2v2h-2zm0-3h2v2h-2zm-3 12h2v2h-2zm-3 0h2v2h-2zm-3 0h2v2h-2zm-3 0h2v2H7z"/></svg>

<?xml version="1.0" encoding="UTF-8"?><!DOCTYPE svg PUBLIC "-//W3C//DTD SVG 1.1//EN" "http://www.w3.org/Graphics/SVG/1.1/DTD/svg11.dtd"><svg xmlns="http://www.w3.org/2000/svg" xmlns:xlink="http://www.w3.org/1999/xlink" version="1.1" id="mdi-box-shadow" width="24" height="24" viewBox="0 0 24 24"><path d="M3,3H18V18H3V3M19,19H21V21H19V19M19,16H21V18H19V16M19,13H21V15H19V13M19,10H21V12H19V10M19,7H21V9H19V7M16,19H18V21H16V19M13,19H15V21H13V19M10,19H12V21H10V19M7,19H9V21H7V19Z" /></svg>
